packages/assets/static/images/icons/identification-card.svg

<svg width="24" height="24" viewBox="0 0 24 24" xmlns="http://www.w3.org/2000/svg">
<path d="M18.7498 10.5C18.7498 10.6989 18.6708 10.8897 18.5301 11.0303C18.3895 11.171 18.1987 11.25 17.9998 11.25H14.2498C14.0509 11.25 13.8601 11.171 13.7195 11.0303C13.5788 10.8897 13.4998 10.6989 13.4998 10.5C13.4998 10.3011 13.5788 10.1103 13.7195 9.96967C13.8601 9.82902 14.0509 9.75 14.2498 9.75H17.9998C18.1987 9.75 18.3895 9.82902 18.5301 9.96967C18.6708 10.1103 18.7498 10.3011 18.7498 10.5ZM17.9998 12.75H14.2498C14.0509 12.75 13.8601 12.829 13.7195 12.9697C13.5788 13.1103 13.4998 13.3011 13.4998 13.5C13.4998 13.6989 13.5788 13.8897 13.7195 14.0303C13.8601 14.171 14.0509 14.25 14.2498 14.25H17.9998C18.1987 14.25 18.3895 14.171 18.5301 14.0303C18.6708 13.8897 18.7498 13.6989 18.7498 13.5C18.7498 13.3011 18.6708 13.1103 18.5301 12.9697C18.3895 12.829 18.1987 12.75 17.9998 12.75ZM21.7498 5.25V18.75C21.7498 19.1478 21.5918 19.5294 21.3105 19.8107C21.0292 20.092 20.6476 20.25 20.2498 20.25H3.74982C3.35199 20.25 2.97046 20.092 2.68916 19.8107C2.40785 19.5294 2.24982 19.1478 2.24982 18.75V5.25C2.24982 4.85218 2.40785 4.47064 2.68916 4.18934C2.97046 3.90804 3.35199 3.75 3.74982 3.75H20.2498C20.6476 3.75 21.0292 3.90804 21.3105 4.18934C21.5918 4.47064 21.7498 4.85218 21.7498 5.25ZM20.2498 18.75V5.25H3.74982V18.75H20.2498ZM12.7254 15.5625C12.7752 15.7552 12.7463 15.9598 12.6452 16.1312C12.5441 16.3026 12.3791 16.4268 12.1864 16.4766C11.9937 16.5263 11.7891 16.4974 11.6177 16.3963C11.4463 16.2952 11.322 16.1302 11.2723 15.9375C11.0258 14.9756 10.0479 14.25 8.99888 14.25C7.94982 14.25 6.97294 14.9756 6.72544 15.9375C6.67571 16.1302 6.55147 16.2952 6.38005 16.3963C6.20863 16.4974 6.00408 16.5263 5.81138 16.4766C5.61868 16.4268 5.45363 16.3026 5.35254 16.1312C5.25145 15.9598 5.22259 15.7552 5.27232 15.5625C5.51569 14.6566 6.09099 13.8755 6.88388 13.3744C6.46254 12.9555 6.17504 12.421 6.05784 11.8386C5.94063 11.2562 5.999 10.652 6.22554 10.1028C6.45207 9.55361 6.83658 9.08402 7.33031 8.75358C7.82405 8.42315 8.40478 8.24675 8.99888 8.24675C9.59298 8.24675 10.1737 8.42315 10.6674 8.75358C11.1612 9.08402 11.5457 9.55361 11.7722 10.1028C11.9988 10.652 12.0571 11.2562 11.9399 11.8386C11.8227 12.421 11.5352 12.9555 11.1139 13.3744C11.9076 13.8748 12.4834 14.6562 12.7264 15.5625H12.7254ZM8.99982 12.75C9.29649 12.75 9.5865 12.662 9.83317 12.4972C10.0798 12.3324 10.2721 12.0981 10.3856 11.824C10.4992 11.5499 10.5289 11.2483 10.471 10.9574C10.4131 10.6664 10.2703 10.3991 10.0605 10.1893C9.8507 9.97956 9.58342 9.8367 9.29245 9.77882C9.00148 9.72094 8.69988 9.75065 8.42579 9.86418C8.1517 9.97771 7.91743 10.17 7.75261 10.4166C7.58779 10.6633 7.49982 10.9533 7.49982 11.25C7.49982 11.6478 7.65785 12.0294 7.93916 12.3107C8.22046 12.592 8.60199 12.75 8.99982 12.75Z"/>
</svg>

<svg viewBox="0 0 24 24" xmlns="http://www.w3.org/2000/svg" aria-hidden="true" fill="currentColor"><path d="M18.75 10.5a.75.75 0 0 1-.75.75h-3.75a.75.75 0 1 1 0-1.5H18a.75.75 0 0 1 .75.75M18 12.75h-3.75a.75.75 0 1 0 0 1.5H18a.75.75 0 1 0 0-1.5m3.75-7.5v13.5a1.5 1.5 0 0 1-1.5 1.5H3.75a1.5 1.5 0 0 1-1.5-1.5V5.25a1.5 1.5 0 0 1 1.5-1.5h16.5a1.5 1.5 0 0 1 1.5 1.5m-1.5 13.5V5.25H3.75v13.5zm-7.525-3.187a.75.75 0 1 1-1.453.374c-.246-.961-1.224-1.687-2.273-1.687s-2.026.726-2.274 1.688a.75.75 0 0 1-1.453-.376 3.74 3.74 0 0 1 1.612-2.188 3 3 0 1 1 4.23 0c.794.5 1.37 1.282 1.612 2.188M9 12.75a1.5 1.5 0 1 0 0-3 1.5 1.5 0 0 0 0 3"/></svg>
